X:1
T:Title
%%score { ( 1 5 6 ) | ( 2 3 4 ) }
L:1/8
M:9/8
K:A
V:1 treble nm="Grand Piano"
V:5 treble 
V:6 treble 
V:2 bass 
V:3 bass 
V:4 bass 
V:1
 z3 z3[Q:1/4=100] [CE]2 [CE] | [CA]3- [CA]2 [Ec] BAF | [CE]3 [A,C]3 [CE]2 [CE] | %3
 [DF]3- [DF]2 [FA] [Fd]2 [^EA] |[M:3/4] [Ec]6 |[M:3/8] [Ec]2 [Ec] |[M:9/8] B3- B2 G GFG | %7
 [CA]3 [CE]3 [Ec]2 [Ec] | [EB]3- [EB]2 [EG] GA^D |[M:3/4] E6 |[M:3/8] E2 c |[M:9/8] A6 z3 | %12
 [DG]3[K:bass] [DG]3[K:treble] z3 | z2 E z2 B e2 B |[M:3/4] c6 |[M:3/8] cde | %16
[M:9/8] E2 E E2 E [E=G]2 [EG] | [D=G]3 [DF]3 z3 | c6 z3 |[M:3/4] A6 |] %20
V:2
 z3 z3 [A,,A,]2 [A,,A,] | [A,,A,]3- [A,,A,]2 [A,,A,] [D,F,D]2 [D,A,D] | %2
 [A,,A,]3 [A,,E,]3 [A,,A,]2 [A,,A,] | [D,A,]3- [D,A,]2 [D,A,] [D,A,]2 [D,A,] |[M:3/4] [A,,A,]6 | %5
[M:3/8] [A,,A,]2 [A,,A,] |[M:9/8] [E,G,E]3- [E,G,E]2 [E,B,E] [E,B,D]2 [E,B,D] | %7
 [A,,A,]3 [A,,A,]3 [A,,A,]2 [A,,A,] | z3 z3 .^D3 |[M:3/4] [E,G,B,]6 |[M:3/8] z3 | %11
[M:9/8] [A,,A,]2 [A,,A,] z2 C A,CC | .[B,,E,]3 [B,,E,]2 B,, z3 | [E,G,E]2 [E,G,] [E,G,]3 [E,G,E]3 | %14
[M:3/4] .[A,E]2 A, A,3 |[M:3/8] A,B,C |[M:9/8] z3 A,3 z3 | [D,A,]2 D, D,2 D,[K:treble] DEF | %18
 E2- [E,E-] [E,E]3 [E,G,D]3 |[M:3/4] [A,,A,]2 [A,,F,] [A,,E,]3 |] %20
V:3
 x9 | x9 | x9 | x9 |[M:3/4] x6 |[M:3/8] x3 |[M:9/8] x9 | x9 | [B,,G,]6 z [B,,B,][B,,A,B,] | %9
[M:3/4] x6 |[M:3/8] x3 |[M:9/8] z3 [A,,A,]3 [A,,E,]3 | x9 | x9 |[M:3/4] x6 |[M:3/8] x3 | %16
[M:9/8] A,2 A, z2 C [C,A,]3 | x6[K:treble] x3 | .[E,A,]3 z3 z3 |[M:3/4] x6 |] %20
V:4
 x9 | x9 | x9 | x9 |[M:3/4] x6 |[M:3/8] x3 |[M:9/8] x9 | x9 | z3 z2 [B,,B,]- [B,,B,] z z | %9
[M:3/4] x6 |[M:3/8] x3 |[M:9/8] x9 | x9 | x9 |[M:3/4] x6 |[M:3/8] x3 |[M:9/8] x9 | %17
 x6[K:treble] x3 | x9 |[M:3/4] x6 |] %20
V:5
 x9 | x9 | x9 | x9 |[M:3/4] x6 |[M:3/8] x3 |[M:9/8] x9 | x9 | x9 |[M:3/4] x6 |[M:3/8] x3 | %11
[M:9/8] C2 C C2 E CEA | z2[K:bass] [B,,E,] z2 E,[K:treble] E2 d | B6 z3 |[M:3/4] z A F E3 | %15
[M:3/8] x3 |[M:9/8] [CA]6 z3 | z2 A, A,2 A, F=GA | z2 A, z2 c B2 E |[M:3/4] C2 D C3 |] %20
V:6
 x9 | x9 | x9 | x9 |[M:3/4] x6 |[M:3/8] x3 |[M:9/8] x9 | x9 | x9 |[M:3/4] x6 |[M:3/8] x3 | %11
[M:9/8] x9 | x2[K:bass] x4[K:treble] x3 | z3 E3 z3 |[M:3/4] x6 |[M:3/8] x3 |[M:9/8] x9 | x9 | %18
 z3 A,3 z3 |[M:3/4] x6 |] %20

